X:1
T:Trapani, 76.76 D
T:Trapani, 76.76 D
T:Samuel Smith, 1899
T:Public Domain Courtesy of the Cyber Hymnal™
C:Samuel Smith, 1899
Z:Public Domain
Z:Courtesy of the Cyber Hymnal™
%%score ( 1 2 ) ( 3 4 )
L:1/8
Q:1/4=107
M:6/8
K:G
V:1 treble 
V:2 treble 
V:3 bass 
V:4 bass 
V:1
 D | [GB]2 [GB] [GB]2 [EA] | [DG]3 [DF]2 [CE] | [B,D]2 [DG] [DA]2 [DB] | [DA]3- [DA]2 D | %5
 [Dc]2 [Ac] [Ac]2 [GB] | B2 A [EG]2 [CE] | [B,D]2 [EG] [EA]2 [FB] | G3- G2 [DG] | %9
 [DA]2 [FA] d2 [Ac] | [Ac]3 [GB]2 [FA] | (Be)[Gd] (^cB)[Gc] | [Fd]3- [Fd]2 D | %13
 [DB]2 [^DB] [EB]2 [EA] | [DG]3 [DF]2 [CE] | [B,D]2 [EG] [EA]2 [FB] | G3- G2 |] %17
V:2
 D | x6 | x6 | x6 | x5 D | x6 | E3 x3 | x6 | G3- G2 x | x3 (FG) x | x6 | G2 G2 x2 | x5 D | x6 | %14
 x6 | x6 | G3- G2 |] %17
V:3
 [G,B,] | [G,D]2 [G,D] [G,D]2 [C,C] | [D,B,]3 [D,A,]2 [F,A,] | [G,B,]2 [B,,G,] [A,,F,]2 [G,,G,] | %4
 [D,F,]3- [D,F,]2 [D,F,] | [F,A,]2 [F,D] [F,D]2 [G,D] | [C,C]3 [E,B,]2 [F,A,] | %7
 [G,B,]2 [E,B,] [C,C]2 [D,C] | [G,B,]3- [G,B,]2 [G,B,] | [F,A,]2 [D,D] D2 [F,D] | %10
 [G,D]3 [G,D]2 [D,D] | (DB,)[G,_B,] [E,A,]2 [E,A,] | [D,A,]3- [D,A,]2 [F,A,] | %13
 G,2 [F,A,] [E,G,]2 [C,C] | [D,B,]3 [D,A,]2 [F,A,] | [G,B,]2 [E,B,] [C,C]2 [D,C] | %16
 [G,B,]3- [G,B,]2 |] %17
V:4
 x | x6 | x6 | x6 | x6 | x6 | x6 | x6 | x6 | x3 (D,E,) x | x6 | G,2 x4 | x6 | G,2 x4 | x6 | x6 | %16
 x5 |] %17

